X:88
T:Halting march, The
R:March
O:Ireland
M:4/4
K:Am
A2 B/c/d e(e e)d|e>d ef ec A2|\
G2A/B/c d(d d)e|dB GB d2cB|\
A2 B/c/d e(e e)d|e>d ef ec A2|
a(g g)e d(c c)B|A>B AG A4:|\
a(a a)g e(d d)e|g>a ge dB G2|
a(a a)g e(d d)e|g>a ge g2 a/g/e/g/|\
a(a a)g e(d d)e|g>a ge dB G2|
A>B cd e2 dB|A>B cd e2e2|\
a(a a)g e(d d)e|g>a ge dB G2|\
A>B cd e2 dB|A>B AG A4||
